material/.icons/material/chat-minus.svg

<svg xmlns="http://www.w3.org/2000/svg" viewBox="0 0 24 24"><path d="M23 17v2h-8v-2h8M12 3c5.5 0 10 3.58 10 8 0 .58-.08 1.14-.22 1.68A6.005 6.005 0 0013 18l.08.95L12 19c-1.24 0-2.43-.18-3.53-.5C5.55 21 2 21 2 21c2.33-2.33 2.7-3.9 2.75-4.5C3.05 15.07 2 13.14 2 11c0-4.42 4.5-8 10-8z"/></svg>

<?xml version="1.0" encoding="UTF-8"?><!DOCTYPE svg PUBLIC "-//W3C//DTD SVG 1.1//EN" "http://www.w3.org/Graphics/SVG/1.1/DTD/svg11.dtd"><svg xmlns="http://www.w3.org/2000/svg" xmlns:xlink="http://www.w3.org/1999/xlink" version="1.1" id="mdi-chat-minus" width="24" height="24" viewBox="0 0 24 24"><path d="M23 17V19H15V17H23M12 3C17.5 3 22 6.58 22 11C22 11.58 21.92 12.14 21.78 12.68C20.95 12.25 20 12 19 12C15.69 12 13 14.69 13 18L13.08 18.95L12 19C10.76 19 9.57 18.82 8.47 18.5C5.55 21 2 21 2 21C4.33 18.67 4.7 17.1 4.75 16.5C3.05 15.07 2 13.14 2 11C2 6.58 6.5 3 12 3Z" /></svg>
